optimized/outline/cake.svg

<svg xmlns="http://www.w3.org/2000/svg" fill="none" viewBox="0 0 24 24" stroke-width="2" stroke="currentColor" aria-hidden="true">
  <path stroke-linecap="round" stroke-linejoin="round" d="M21 15.5458C20.4771 15.5458 19.9542 15.6972 19.5 16C18.5917 16.6056 17.4083 16.6056 16.5 16C15.5917 15.3944 14.4083 15.3944 13.5 16C12.5917 16.6056 11.4083 16.6056 10.5 16C9.59167 15.3944 8.40833 15.3944 7.5 16C6.59167 16.6056 5.40833 16.6056 4.5 16C4.04584 15.6972 3.52292 15.5458 3 15.5458M9 6V8M12 6V8M15 6V8M9 3H9.01M12 3H12.01M15 3H15.01M21 21V14C21 12.8954 20.1046 12 19 12H5C3.89543 12 3 12.8954 3 14V21H21ZM18 12V10C18 8.89543 17.1046 8 16 8H8C6.89543 8 6 8.89543 6 10V12H18Z"/>
</svg>

<svg xmlns="http://www.w3.org/2000/svg" fill="none" viewBox="0 0 24 24" stroke-width="2" stroke="currentColor" aria-hidden="true">
  <path stroke-linecap="round" stroke-linejoin="round" d="M21 15.546c-.523 0-1.046.151-1.5.454a2.704 2.704 0 01-3 0 2.704 2.704 0 00-3 0 2.704 2.704 0 01-3 0 2.704 2.704 0 00-3 0 2.704 2.704 0 01-3 0 2.701 2.701 0 00-1.5-.454M9 6v2m3-2v2m3-2v2M9 3h.01M12 3h.01M15 3h.01M21 21v-7a2 2 0 00-2-2H5a2 2 0 00-2 2v7h18zm-3-9v-2a2 2 0 00-2-2H8a2 2 0 00-2 2v2h12z"/>
</svg>
